source/images/icons/icon-editorial/engrenage.svg

<?xml version="1.0" encoding="UTF-8"?>
<svg width="80px" height="80px" viewBox="0 0 80 80" version="1.1" xmlns="http://www.w3.org/2000/svg" xmlns:xlink="http://www.w3.org/1999/xlink">
    <!-- Generator: Sketch 55.2 (78181) - https://sketchapp.com -->
    <title>Illustrative Icons/Engrenage</title>
    <desc>Created with Sketch.</desc>
    <g id="Illustrative-Icons/Engrenage" stroke="none" stroke-width="1" fill="none" fill-rule="evenodd">
        <path d="M73.5001136,37.1466849 C73.5001136,37.0916849 73.5001136,37.0366849 73.4901136,36.9900182 C73.4017803,36.1250182 73.2684469,35.2266849 73.0701136,34.1750182 L73.0701136,34.1400182 C73.0601136,34.0683515 73.0501136,33.9983515 73.0367803,33.9283515 C72.9461965,33.466396 72.664478,33.0642925 72.2612316,32.821392 C71.8579851,32.5784916 71.3708234,32.5174508 70.9201136,32.6533515 C68.6341405,33.3645601 66.182962,32.2157569 65.2669673,30.0038699 C64.3509726,27.7919828 65.2722819,25.2465528 67.3917803,24.1333515 C67.8060762,23.910689 68.1070043,23.5233406 68.2203314,23.0668577 C68.3336585,22.6103748 68.2488332,22.1272587 67.9867803,21.7366848 C67.9467803,21.6783515 67.9051136,21.6200182 67.8617803,21.5700182 L67.8467803,21.5500182 C67.2351136,20.6550182 66.6951136,19.9250182 66.1467803,19.2516848 C66.1184469,19.2166848 66.0867803,19.1816848 66.0534469,19.1450182 C65.3867803,18.3383515 64.7017803,17.5750182 64.0051136,16.8700182 C62.4546583,15.311607 60.754825,13.9093143 58.9301136,12.6833515 C58.5394237,12.4207188 58.0558872,12.3355586 57.5989787,12.4489125 C57.1420702,12.5622665 56.754409,12.8635613 56.5317802,13.2783515 C55.4137916,15.3900127 52.8729541,16.3046826 50.6655615,15.3901174 C48.4581689,14.4755521 47.3087357,12.031932 48.0117802,9.7483515 C48.1476584,9.29740169 48.0863986,8.81001423 47.84315,8.40671692 C47.5999014,8.00341961 47.1973752,7.72186685 46.7351136,7.63168483 C44.5774196,7.20929385 42.3837614,6.99774258 40.1851136,7 C39.2084469,7 38.1851136,7.0583515 37.1467802,7.16668483 C37.0917802,7.16668483 37.0367802,7.16668483 36.9884469,7.17668483 C36.1351136,7.2633515 35.2117802,7.40168483 34.1734469,7.59668483 L34.1384469,7.59668483 C34.0667802,7.60668483 33.9951135,7.61668483 33.9251135,7.63168483 C33.4638537,7.72273201 33.0625053,8.00436495 32.8200036,8.40715907 C32.5775018,8.80995319 32.5164073,9.2964356 32.6517802,9.74668483 C33.3629888,12.0326579 32.2141856,14.4838364 30.0022986,15.3998311 C27.7904115,16.3158258 25.2449815,15.3945166 24.1317802,13.2750182 C23.8537063,12.7437887 23.3117087,12.4028745 22.7124548,12.3822685 C22.113201,12.3616624 21.5490658,12.6645409 21.2351579,13.1754143 C20.92125,13.6862877 20.9059582,14.3264049 21.1951135,14.8516848 C22.9547538,18.1571436 26.7796618,19.7900653 30.3839901,18.7745808 C33.9883184,17.7590963 36.3982038,14.3695821 36.1734469,10.6316848 C36.5601136,10.5750182 36.9284469,10.5283515 37.2884469,10.4900182 L37.4334469,10.4800182 C38.3834469,10.3866848 39.3151136,10.3383515 40.1967802,10.3333515 C41.6320129,10.3284158 43.0657325,10.4270049 44.4867802,10.6283515 C44.2787447,14.020024 46.2466818,17.1697717 49.386149,18.4699512 C52.5256161,19.7701308 56.1442611,18.9340113 58.3951136,16.3883515 C59.5411723,17.2508552 60.6239458,18.1943831 61.6351136,19.2116848 C62.2651136,19.8483515 62.8917803,20.5450182 63.4884469,21.2716848 C63.5184469,21.3083515 63.5501136,21.3450182 63.5851136,21.3833515 C63.8117803,21.6616848 64.0384469,21.9550182 64.2717803,22.2700182 C61.7942357,24.4619819 60.9306038,27.9578017 62.1023857,31.0513206 C63.2741675,34.1448394 66.2371034,36.1912087 69.5451136,36.1916849 C69.7117803,36.1916849 69.8784469,36.1916849 70.0334469,36.1766849 C70.0901136,36.5633515 70.1367803,36.9316849 70.1751136,37.2916849 C70.1751136,37.3400182 70.1751136,37.3883515 70.1851136,37.4366849 C70.2784469,38.3866849 70.3267803,39.3183515 70.3317803,40.2000182 C70.3361289,41.6352316 70.2375427,43.0689091 70.0367803,44.4900182 C66.6447952,44.2811959 63.4943395,46.2488577 62.193701,49.3885247 C60.8930624,52.5281917 61.7291368,56.1473136 64.2751136,58.3983516 C63.412731,59.545031 62.4691982,60.628367 61.4517802,61.6400182 C60.8067802,62.2783516 60.1051136,62.9100182 59.3567802,63.5233516 L59.2767802,63.5933516 C59.0017802,63.8166849 58.7101136,64.0433516 58.3967802,64.2750182 C56.1456396,61.7307738 52.5279036,60.8955921 49.3892947,62.195572 C46.2506857,63.4955519 44.2829952,66.6441606 44.4901136,70.0350182 C44.1017802,70.0916849 43.7351136,70.1400182 43.3851136,70.1750182 L43.2684469,70.1750182 C42.3167802,70.2700182 41.3734469,70.3200182 40.4684469,70.3233516 C39.0331656,70.3297908 37.599337,70.2311942 36.1784469,70.0283516 C36.3872692,66.6363665 34.4196074,63.4859108 31.2799404,62.1852723 C28.1402734,60.8846337 24.5211515,61.7207082 22.2701135,64.2666849 C21.1234341,63.4043023 20.0400981,62.4607695 19.0284469,61.4433516 C18.4051135,60.8133516 17.7817802,60.1200182 17.1751135,59.3816849 C17.1451135,59.3466849 17.1151135,59.3116849 17.0817802,59.2750182 C16.8551135,58.9950182 16.6267802,58.7033516 16.3934469,58.3866849 C18.9376913,56.1355443 19.772873,52.5178082 18.4728931,49.3791993 C17.1729132,46.2405904 14.0243045,44.2728999 10.6334469,44.4800182 C10.5751135,44.0916849 10.5301135,43.7250182 10.4934469,43.3683515 C10.4934469,43.3200182 10.4934469,43.2733515 10.4851135,43.2333515 C10.3917802,42.2866849 10.3417802,41.3516849 10.3367802,40.4566849 C10.3324658,39.0214726 10.4310519,37.5877975 10.6317802,36.1666849 C14.3628141,36.3818853 17.7415444,33.9735575 18.7551702,30.3764076 C19.768796,26.7792576 18.1445808,22.9611708 14.8501135,21.1966848 C14.3248336,20.9075296 13.6847164,20.9228213 13.1738429,21.2367292 C12.6629695,21.5506371 12.3600911,22.1147723 12.3806971,22.7140261 C12.4013032,23.31328 12.7422174,23.8552776 13.2734469,24.1333515 C15.3833342,25.2519217 16.2969064,27.7912869 15.3832053,29.9976355 C14.4695042,32.2039841 12.0280853,33.3539681 9.74511352,32.6533515 C9.29440372,32.5174508 8.80724199,32.5784916 8.40399553,32.821392 C8.00074907,33.0642925 7.71903065,33.466396 7.62844685,33.9283515 C7.20484937,36.0869411 6.99439368,38.2819324 7,40.4816849 C7,41.4666849 7.05844685,42.4916849 7.16678018,43.5350182 C7.16678018,43.5816849 7.16678018,43.6300182 7.17678018,43.6783515 C7.26511351,44.5416849 7.39844685,45.4400182 7.59844685,46.4966849 L7.59844685,46.5300182 C7.60844685,46.6000182 7.61844685,46.6716849 7.63178018,46.7416849 C7.72282736,47.2029447 8.0044603,47.6042931 8.40725442,47.8467949 C8.81004854,48.0892966 9.29653095,48.1503911 9.74678018,48.0150182 C12.0327533,47.3038096 14.4839317,48.4526128 15.3999264,50.6644999 C16.3159211,52.8763869 15.3946119,55.421817 13.2751135,56.5350182 C12.8608176,56.7576807 12.5598895,57.1450291 12.4465624,57.601512 C12.3332353,58.0579949 12.4180606,58.541111 12.6801135,58.9316849 C12.7201135,58.9916849 12.7634469,59.0483516 12.8067802,59.0983516 L12.8217802,59.1166849 C13.4234469,59.9983516 13.9801135,60.7500182 14.5151135,61.4066849 C14.5484469,61.4483516 14.5851135,61.4900182 14.6251135,61.5333516 C15.2917802,62.3400182 15.9734469,63.1000182 16.6617802,63.7950182 C18.2122862,65.3533737 19.9121138,66.7556617 21.7367802,67.9816849 C22.1274701,68.2443176 22.6110065,68.3294778 23.0679151,68.2161239 C23.5248236,68.1027699 23.9124848,67.8014752 24.1351135,67.3866849 C25.2536838,65.2767976 27.7930489,64.3632253 29.9993975,65.2769264 C32.2057461,66.1906275 33.3557301,68.6320464 32.6551135,70.9150182 C32.5192128,71.365728 32.5802536,71.8528898 32.8231541,72.2561362 C33.0660545,72.6593827 33.468158,72.9411011 33.9301135,73.0316849 C36.0507715,73.4501691 38.2068956,73.6628234 40.3684469,73.6666849 L40.4817802,73.6666849 C41.4817802,73.6666849 42.5184469,73.6066849 43.5501136,73.5000182 L43.6751136,73.4916849 C44.5334469,73.4050182 45.4584469,73.2666849 46.5084469,73.0683516 L46.5384469,73.0683516 C46.6034469,73.0600182 46.6684469,73.0500182 46.7334469,73.0366849 C47.1966267,72.9477113 47.6004224,72.6666567 47.8447165,72.2632063 C48.0890105,71.8597558 48.1509267,71.3716892 48.0151136,70.9200182 C47.314497,68.6370464 48.464481,66.1956275 50.6708296,65.2819264 C52.8771782,64.3682253 55.4165433,65.2817976 56.5351136,67.3916849 C56.7585287,67.8071307 57.1475253,68.1084478 57.6056322,68.2209095 C58.063739,68.3333713 58.5480467,68.2464437 58.9384469,67.9816849 C58.9917802,67.9450182 59.0451136,67.9066849 59.1051136,67.8666849 L59.1184469,67.8566849 C60.0017802,67.2533516 60.7584469,66.6900182 61.4417802,66.1366849 L61.5251136,66.0633516 C62.3334469,65.3966849 63.1017803,64.7066849 63.8101136,64.0050182 C65.3686203,62.4546501 66.7709211,60.754807 67.9967803,58.9300182 C68.2594129,58.5393283 68.3445732,58.0557919 68.2312192,57.5988834 C68.1178653,57.1419749 67.8165705,56.7543136 67.4017803,56.5316849 C65.2918929,55.4131147 64.3783207,52.8737496 65.2920218,50.6674009 C66.2057229,48.4610523 68.6471418,47.3110683 70.9301136,48.0116849 C71.3810634,48.1475631 71.8684509,48.0863033 72.2717482,47.8430547 C72.6750455,47.599806 72.9565982,47.1972798 73.0467803,46.7350182 C73.4674807,44.5772617 73.6751451,42.3833885 73.6670232,40.1850182 C73.6670232,39.2083515 73.6084469,38.1866849 73.5001136,37.1466849 Z M57.8334469,40.3333515 C57.8334469,30.6683684 49.99843,22.8333515 40.3334469,22.8333515 C30.6684638,22.8333515 22.8334469,30.6683684 22.8334469,40.3333515 C22.8334469,49.9983347 30.6684638,57.8333515 40.3334469,57.8333515 C49.9942413,57.8232466 57.8233419,49.994146 57.8334469,40.3333515 L57.8334469,40.3333515 Z M26.1667802,40.3333515 C26.1667802,32.5093176 32.5094129,26.1666849 40.3334469,26.1666849 C48.1574809,26.1666849 54.5001136,32.5093176 54.5001136,40.3333515 C54.5001136,48.1573855 48.1574809,54.5000182 40.3334469,54.5000182 C32.51284,54.4917507 26.1750477,48.1539584 26.1667802,40.3333515 Z M17.9434469,19.6100182 C18.8639214,19.6100182 19.6101135,18.8638261 19.6101135,17.9433515 C19.6101135,17.0228769 18.8639214,16.2766848 17.9434469,16.2766848 C17.0229723,16.2766848 16.2767802,17.0228769 16.2767802,17.9433515 C16.2767802,18.8638261 17.0229723,19.6100182 17.9434469,19.6100182 Z" id="Shape-color" fill="#ADB5BD"></path>
    </g>
</svg>

<svg width="80" height="80">
    <title>
        Illustrative Icons/Engrenage
    </title>
    <path d="M73.5 37.147c0-.055 0-.11-.01-.157a33.156 33.156 0 0 0-.42-2.815v-.035a4.31 4.31 0 0 0-.033-.212 1.667 1.667 0 0 0-2.117-1.275 4.63 4.63 0 0 1-3.528-8.52 1.667 1.667 0 0 0 .47-2.563l-.015-.02a33.58 33.58 0 0 0-1.7-2.298 2.511 2.511 0 0 0-.094-.107 34.595 34.595 0 0 0-2.048-2.275 33.558 33.558 0 0 0-5.075-4.187 1.667 1.667 0 0 0-2.398.595 4.632 4.632 0 0 1-8.52-3.53 1.667 1.667 0 0 0-1.277-2.116A33.913 33.913 0 0 0 40.185 7c-.977 0-2 .058-3.038.167-.055 0-.11 0-.159.01a33.74 33.74 0 0 0-2.815.42h-.035c-.071.01-.143.02-.213.035a1.667 1.667 0 0 0-1.273 2.115 4.63 4.63 0 0 1-8.52 3.528 1.667 1.667 0 1 0-2.937 1.577 7.963 7.963 0 0 0 14.978-4.22c.387-.057.755-.104 1.115-.142l.145-.01a30.18 30.18 0 0 1 2.764-.147 29.848 29.848 0 0 1 4.29.295 7.96 7.96 0 0 0 13.908 5.76 30.022 30.022 0 0 1 3.24 2.824c.63.636 1.257 1.333 1.853 2.06.03.036.062.073.097.111.227.279.453.572.687.887a7.96 7.96 0 0 0 5.273 13.922c.167 0 .333 0 .488-.015.057.386.104.755.142 1.115 0 .048 0 .096.01.145.093.95.142 1.881.147 2.763a30.018 30.018 0 0 1-.295 4.29 7.96 7.96 0 0 0-5.762 13.908 30 30 0 0 1-2.823 3.242 30.18 30.18 0 0 1-2.095 1.883l-.08.07c-.275.224-.567.45-.88.682a7.96 7.96 0 0 0-13.907 5.76c-.388.057-.755.105-1.105.14h-.117a29.422 29.422 0 0 1-7.09-.147 7.96 7.96 0 0 0-13.908-5.761 30 30 0 0 1-3.242-2.824 30.208 30.208 0 0 1-1.853-2.061l-.093-.107c-.227-.28-.455-.572-.689-.888a7.96 7.96 0 0 0-5.76-13.907 23.848 23.848 0 0 1-.14-1.112c0-.048 0-.095-.008-.135a30.17 30.17 0 0 1-.148-2.776 30.028 30.028 0 0 1 .295-4.29 7.963 7.963 0 0 0 4.218-14.97 1.667 1.667 0 1 0-1.577 2.936 4.632 4.632 0 0 1-3.528 8.52 1.667 1.667 0 0 0-2.117 1.275A33.587 33.587 0 0 0 7 40.482c0 .985.058 2.01.167 3.053a.7.7 0 0 0 .01.143c.088.864.221 1.762.421 2.819v.033c.01.07.02.142.034.212a1.667 1.667 0 0 0 2.115 1.273 4.63 4.63 0 0 1 3.528 8.52 1.667 1.667 0 0 0-.468 2.563l.015.019a33.627 33.627 0 0 0 1.693 2.29c.033.041.07.083.11.126a34.004 34.004 0 0 0 2.037 2.262 33.57 33.57 0 0 0 5.075 4.187 1.667 1.667 0 0 0 2.398-.595 4.632 4.632 0 0 1 8.52 3.528 1.667 1.667 0 0 0 1.275 2.117c2.12.418 4.277.63 6.438.635h.114c1 0 2.036-.06 3.068-.167l.125-.008a33.232 33.232 0 0 0 2.833-.424h.03c.065-.008.13-.018.195-.031a1.667 1.667 0 0 0 1.282-2.117 4.632 4.632 0 0 1 8.52-3.528 1.667 1.667 0 0 0 2.403.59c.054-.037.107-.075.167-.115l.013-.01a35.27 35.27 0 0 0 2.324-1.72l.083-.074a33.936 33.936 0 0 0 2.285-2.058 33.538 33.538 0 0 0 4.187-5.075 1.667 1.667 0 0 0-.595-2.398 4.632 4.632 0 0 1 3.528-8.52 1.667 1.667 0 0 0 2.117-1.277c.42-2.158.628-4.352.62-6.55 0-.977-.059-1.998-.167-3.038zm-15.667 3.186c0-9.665-7.835-17.5-17.5-17.5s-17.5 7.835-17.5 17.5 7.835 17.5 17.5 17.5c9.661-.01 17.49-7.839 17.5-17.5zm-31.666 0c0-7.824 6.342-14.166 14.166-14.166 7.824 0 14.167 6.342 14.167 14.166 0 7.824-6.343 14.167-14.167 14.167-7.82-.008-14.158-6.346-14.166-14.167zM17.943 19.61a1.667 1.667 0 1 0 0-3.333 1.667 1.667 0 0 0 0 3.333z" fill="#ADB5BD" fill-rule="evenodd"/>
</svg>
